symbols/web/medication_liquid/materialsymbolsoutlined/medication_liquid_wght600gradN25fill1_40px.svg

<svg xmlns="http://www.w3.org/2000/svg" height="40" width="40"><path d="M3.75 7.083V3.542h21.542v3.541Zm8.458 22.459h4.625V25.25h4.292v-4.625h-4.292v-4.292h-4.625v4.292H7.875v4.625h4.333ZM5.5 36.458q-1.458 0-2.5-1.041-1.042-1.042-1.042-2.5V12.958q0-1.416 1.042-2.479 1.042-1.062 2.5-1.062h18.042q1.458 0 2.5 1.062 1.041 1.063 1.041 2.479v19.959q0 1.458-1.041 2.5-1.042 1.041-2.5 1.041ZM33.292 23.25q-1.584-.833-2.584-2.604-1-1.771-1-4.104 0-3 1.563-5.063 1.562-2.062 3.812-2.062t3.792 2.083q1.542 2.083 1.542 5.083 0 2.292-1 4.063t-2.584 2.604v11.417q0 .75-.5 1.271-.5.52-1.25.52-.708 0-1.25-.52-.541-.521-.541-1.271Z"/></svg>

<svg xmlns="http://www.w3.org/2000/svg" height="40" width="40"><path d="M3.75 7.083V3.542H25.292V7.083ZM12.208 29.542H16.833V25.25H21.125V20.625H16.833V16.333H12.208V20.625H7.875V25.25H12.208ZM5.5 36.458Q4.042 36.458 3 35.417Q1.958 34.375 1.958 32.917V12.958Q1.958 11.542 3 10.479Q4.042 9.417 5.5 9.417H23.542Q25 9.417 26.042 10.479Q27.083 11.542 27.083 12.958V32.917Q27.083 34.375 26.042 35.417Q25 36.458 23.542 36.458ZM33.292 23.25Q31.708 22.417 30.708 20.646Q29.708 18.875 29.708 16.542Q29.708 13.542 31.271 11.479Q32.833 9.417 35.083 9.417Q37.333 9.417 38.875 11.5Q40.417 13.583 40.417 16.583Q40.417 18.875 39.417 20.646Q38.417 22.417 36.833 23.25V34.667Q36.833 35.417 36.333 35.938Q35.833 36.458 35.083 36.458Q34.375 36.458 33.833 35.938Q33.292 35.417 33.292 34.667Z"/></svg>
